X:1
T:86tresVoces
T:
I:linebreak !
L:1/4
K:Ebmaj
V:1 clef=treble
c4 |d4 |f4|e4|d4-|d4|c4|=B4|c4|
V:2 clef=treble
G4 |A4 |B4|c4|A4|G4-|G4|F4|E4|
V:3 clef=bass
C,4 |F,4 |D,4|E,4|F,4|G,4|E,4|D,4|C,4|